svgs/light/scalpel-line-dashed.svg

<svg xmlns="http://www.w3.org/2000/svg" viewBox="0 0 576 512"><!--! Font Awesome Pro 6.0.0-alpha3 by @fontawesome - https://fontawesome.com License - https://fontawesome.com/license (Commercial License) --><path d="M493.9 123.9c13.78-16.12 20.19-37.53 17.56-58.72c-2.625-21.28-13.66-39.85-31.09-52.25C468.1 4.221 453.7 0 439.1 0c-22.07 0-44.44 9.725-60.1 28.1L182.2 249.1C176.2 256.2 174.8 265.9 178.7 274.3S190.8 288 200 288h127.8c11.38 0 22.19-5 29.69-13.72L493.9 123.9zM327.9 256H218.1l184.4-207.1C412.4 38.3 425.8 32 439.1 32c8.354 0 16.16 2.424 22.63 7.045c10.16 7.232 16.35 17.64 17.89 30.11c1.521 12.29-2.17 24.68-9.512 33.29l-136.9 150.1C331.9 255.1 329.9 256 327.9 256zM288 336c0-8.844-7.156-16-16-16s-16 7.156-16 16c0 105.3-129.9 133.6-198.6 141.2l129.9-129.9c6.25-6.25 6.25-16.38 0-22.62s-16.38-6.25-22.62 0l-159.1 160C.1133 489.3-1.262 496.2 1.223 502.1C3.691 508.1 9.535 512 16 512C110.1 512 288 475.2 288 336zM304 480h-64C231.2 480 224 487.2 224 496S231.2 512 240 512h64c8.844 0 16-7.156 16-16S312.8 480 304 480zM432 480h-64c-8.844 0-16 7.156-16 16s7.156 16 16 16h64c8.844 0 16-7.156 16-16S440.8 480 432 480zM560 480h-64c-8.844 0-16 7.156-16 16s7.156 16 16 16h64c8.844 0 16-7.156 16-16S568.8 480 560 480z"/></svg>

<svg xmlns="http://www.w3.org/2000/svg" viewBox="0 0 576 512"><!-- Font Awesome Pro 6.0.0-alpha2 by @fontawesome - https://fontawesome.com License - https://fontawesome.com/license (Commercial License) --><path d="M493.859 123.945C507.64 107.82 514.048 86.412 511.421 65.223C508.796 43.941 497.765 25.377 480.328 12.971C468.08 4.221 453.679 0 439.146 0C417.08 0 394.703 9.725 379.045 28.096L182.23 249.123C176.168 256.217 174.824 265.875 178.699 274.312S190.761 288 200.043 288H327.859C339.234 288 350.046 283 357.546 274.281L493.859 123.945ZM327.859 256H218.955L403.4 48.852C412.394 38.301 425.755 32 439.146 32C447.5 32 455.308 34.424 461.777 39.045C471.941 46.277 478.127 56.684 479.666 69.158C481.187 81.447 477.496 93.84 470.154 102.449L333.289 253.412C331.875 255.057 329.894 256 327.859 256ZM288.002 336C288.002 327.156 280.845 320 272.002 320S256.002 327.156 256.002 336C256.002 441.25 126.095 469.594 57.425 477.219L187.314 347.312C193.564 341.062 193.564 330.937 187.314 324.688S170.939 318.438 164.689 324.688L4.691 484.688C0.113 489.25 -1.262 496.156 1.222 502.125C3.691 508.094 9.535 512 16.004 512C110.08 512 288.002 475.219 288.002 336ZM304 480H240C231.156 480 224 487.156 224 496S231.156 512 240 512H304C312.843 512 320 504.844 320 496S312.843 480 304 480ZM432 480H368C359.156 480 352 487.156 352 496S359.156 512 368 512H432C440.843 512 448 504.844 448 496S440.843 480 432 480ZM560 480H496C487.156 480 480 487.156 480 496S487.156 512 496 512H560C568.843 512 576 504.844 576 496S568.843 480 560 480Z"/></svg>
